__todo__/spotify.svg

<svg height="160" preserveAspectRatio="xMidYMid" viewBox="0 0 512 160" width="512" xmlns="http://www.w3.org/2000/svg"><path d="m79.6551367 0c-43.9913834 0-79.6551367 35.6628022-79.6551367 79.6541855 0 43.9932855 35.6637533 79.6532345 79.6551367 79.6532345 43.9961393 0 79.6560883-35.659949 79.6560883-79.6532345 0-43.9885298-35.659949-79.65038076-79.6570395-79.65038076zm36.5293323 114.884198c-1.426778 2.339917-4.489596 3.081842-6.829513 1.645551-18.7022112-11.423739-42.2459575-14.010964-69.9730181-7.676068-2.6718804.608759-5.3352001-1.065327-5.9439589-3.738159-.6116123-2.672832 1.055816-5.3361513 3.7343547-5.9449101 30.342821-6.9322407 56.370113-3.9474203 77.3665843 8.8840741 2.339916 1.43629 3.081841 4.489596 1.645551 6.829512zm9.749652-21.6889341c-1.79774 2.9220422-5.621506 3.8446922-8.541646 2.0469514-21.4111884-13.1606041-54.0492203-16.9720048-79.3745373-9.2845227-3.2844439.9920866-6.7534178-.8589206-7.7502603-4.1376574-.9892331-3.2844439.8627253-6.7467596 4.1414621-7.7455045 28.928408-8.7775408 64.8917848-4.5257411 89.4799325 10.5838423 2.92014 1.7977408 3.84279 5.621507 2.045049 8.5378421zm.837044-22.5849512c-25.6725-15.2484565-68.0287952-16.6505041-92.5398972-9.2112814-3.9360061 1.1937379-8.0983943-1.0282317-9.291181-4.9642377-1.1927868-3.9379085 1.0272804-8.0974432 4.96614-9.2940347 28.1370216-8.5416468 74.9115742-6.8913397 104.4687162 10.6551813 3.547922 2.101169 4.708368 6.6735182 2.606248 10.2090751-2.092608 3.5403129-6.677323 4.7074176-10.206221 2.6052974zm89.944111 2.9220422c-13.754144-3.279688-16.198691-5.5815571-16.198691-10.418336 0-4.5694957 4.299359-7.6446787 10.700838-7.6446787 6.201731 0 12.34639 2.3351606 18.795428 7.1424527.190237.1455314.437546.2035537.675342.1655063.247308-.036145.456569-.1683598.599247-.3671576l6.71537-9.4661992c.275844-.3899861.199749-.927406-.171213-1.2251271-7.676068-6.1570245-16.312833-9.1504056-26.414425-9.1504056-14.848007 0-25.225442 8.911658-25.225442 21.6623011 0 13.6732932 8.950657 18.514828 24.416935 22.2520362 13.154897 3.0314286 15.380671 5.5710942 15.380671 10.1101519 0 5.0317721-4.489596 8.1611721-11.718607 8.1611721-8.028006 0-14.581675-2.710879-21.905804-9.0457747-.180726-.1617016-.428034-.2282846-.656318-.2187727-.247309.0190237-.466081.133166-.618271.3138913l-7.53339 8.9601681c-.313891.380475-.275844.932162.085607 1.255565 8.522623 7.609485 19.004688 11.623489 30.323797 11.623489 15.998942 0 26.338506-8.741396 26.338506-22.2767675.028359-11.4208857-6.810665-17.74627-23.561044-21.8211492zm59.791528-13.5639068c-6.934143 0-12.622233 2.7318051-17.32109 8.3295324v-6.3006535c0-.4974701-.399498-.9026751-.894115-.9026751h-12.317853c-.494617 0-.894115.405205-.894115.9026751v70.008212c0 .494617.399498.903627.894115.903627h12.317853c.494617 0 .894115-.40901.894115-.903627v-22.096042c4.698857 5.260057 10.386947 7.83777 17.32109 7.83777 12.888565 0 25.938873-9.920866 25.938873-28.8865559.018982-18.9694947-13.031284-28.8932142-25.929361-28.8932142zm11.613976 28.892263c0 9.6535827-5.94491 16.3974889-14.467533 16.3974889-8.417993 0-14.771913-7.0482855-14.771913-16.3974889 0-9.3501546 6.35392-16.3965376 14.771913-16.3965376 8.379945-.0009512 14.467533 6.8932421 14.467533 16.3955864zm47.75903-28.892263c-16.598189 0-29.600896 12.7801299-29.600896 29.0986702 0 16.1435227 12.9171 28.7847787 29.401147 28.7847787 16.65526 0 29.696015-12.736375 29.696015-28.9911859 0-16.1996422-12.955148-28.8903606-29.496266-28.8903606zm0 45.3848699c-8.827003 0-15.485302-7.0958443-15.485302-16.4973629 0-9.4443219 6.430015-16.2976142 15.285553-16.2976142 8.884073 0 15.58042 7.0929911 15.58042 16.5040215 0 9.4424196-6.468062 16.2909556-15.380671 16.2909556zm64.937442-44.2586661h-13.554395v-13.8549697c0-.4965188-.399498-.9017239-.894115-.9017239h-12.317854c-.494616 0-.903626.4052051-.903626.9017239v13.8549697h-5.916374c-.494617 0-.894115.405205-.894115.9026751v10.5838423c0 .4965189.399498.9026752.894115.9026752h5.916374v27.3893895c0 11.062289 5.507365 16.674284 16.379416 16.674284 4.413502 0 8.075566-.913138 11.52837-2.872581.285356-.152189.456569-.456569.456569-.779972v-10.082567c0-.30438-.161702-.599247-.428033-.760949-.266332-.171213-.599247-.180725-.875091-.038047-2.368452 1.188982-4.66081 1.740669-7.229011 1.740669-3.94742 0-5.716625-1.79774-5.716625-5.8117436v-25.453727h13.554395c.494616 0 .894114-.4052051.894114-.9026752v-10.5828911c.019024-.49747-.380474-.9026751-.884603-.9026751zm47.216853.0542175v-1.701671c0-5.0060899 1.921395-7.2385225 6.220754-7.2385225 2.568201 0 4.632274.5098355 6.943655 1.2802958.285356.0894115.580223.0447057.808508-.1255565.237796-.1702622.370962-.4432525.370962-.7324129v-10.377435c0-.3966444-.247308-.7476319-.637294-.8646278-2.435035-.7257546-5.554924-1.4705329-10.234757-1.4705329-11.366668 0-17.387673 6.4052839-17.387673 18.5167303v2.6062486h-5.916375c-.494616 0-.903626.405205-.903626.9017239v10.6380599c0 .4965189.40901.9026752.903626.9026752h5.916375v42.2373975c0 .504128.40901.903626.903626.903626h12.308342c.504128 0 .903626-.399498.903626-.903626v-42.234544h11.499834l17.615958 42.234544c-1.99749 4.432525-3.966444 5.317127-6.648788 5.317127-2.168703 0-4.46106-.646806-6.791465-1.930907-.218772-.114142-.485104-.133166-.713389-.066583-.237796.085607-.437545.25682-.532664.485105l-4.175705 9.159917c-.199749.437546-.028535.941674.389986 1.169959 4.35643 2.35894 8.284827 3.367197 13.145385 3.367197 9.093335 0 14.125107-4.242288 18.54812-15.637492l21.363629-55.203959c.114142-.2777462.076095-.5916375-.095119-.8379945-.161701-.2444547-.437545-.3918885-.732413-.3918885h-12.821982c-.389986 0-.732413.2444547-.856067.6049541l-13.135873 37.5090534-14.381927-37.5337843c-.133166-.3490851-.466081-.5802232-.837043-.5802232h-21.040226zm-27.375122-.0542175h-12.317853c-.494617 0-.903627.405205-.903627.9026751v53.723915c0 .504128.40901.903626.903627.903626h12.317853c.494617 0 .903627-.399498.903627-.903626v-53.7201102c0-.4974701-.399498-.9026752-.903627-.9026752zm-6.087588-24.4635428c-4.879582 0-8.836514 3.9493227-8.836514 8.8279537 0 4.8814845 3.956932 8.8355631 8.836514 8.8355631 4.879583 0 8.827003-3.9540786 8.827003-8.8355631 0-4.8776798-3.956932-8.8279537-8.827003-8.8279537z" fill="#1ed760"/></svg>

<?xml version="1.0" encoding="UTF-8"?>
<svg width="512px" height="160px" viewBox="0 0 512 160" version="1.1" xmlns="http://www.w3.org/2000/svg" xmlns:xlink="http://www.w3.org/1999/xlink" preserveAspectRatio="xMidYMid">
    <title>Spotify</title>
    <g>
        <path d="M79.6551367,0 C35.6637533,0 0,35.6628022 0,79.6541855 C0,123.647471 35.6637533,159.30742 79.6551367,159.30742 C123.651276,159.30742 159.311225,123.647471 159.311225,79.6541855 C159.311225,35.6656557 123.651276,0.00380474245 79.6541855,0.00380474245 L79.6551367,0 Z M116.184469,114.884198 C114.757691,117.224115 111.694873,117.96604 109.354956,116.529749 C90.6527448,105.10601 67.1089985,102.518785 39.3819379,108.853681 C36.7100575,109.46244 34.0467378,107.788354 33.437979,105.115522 C32.8263667,102.44269 34.493795,99.7793707 37.1723337,99.1706119 C67.5151547,92.2383712 93.5424467,95.2231916 114.538918,108.054686 C116.878834,109.490976 117.620759,112.544282 116.184469,114.884198 L116.184469,114.884198 Z M125.934121,93.1952639 C124.136381,96.1173061 120.312615,97.0399561 117.392475,95.2422153 C95.9812866,82.0816112 63.3432547,78.2702105 38.0179377,85.9576926 C34.7334938,86.9497792 31.2645199,85.098772 30.2676774,81.8200352 C29.2784443,78.5355913 31.1304027,75.0732756 34.4091395,74.0745307 C63.3375475,65.2969899 99.3009243,69.5487896 123.889072,84.658373 C126.809212,86.4561138 127.731862,90.27988 125.934121,93.1962151 L125.934121,93.1952639 Z M126.771165,70.6103127 C101.098665,55.3618562 58.7423698,53.9598086 34.2312678,61.3990313 C30.2952617,62.5927692 26.1328735,60.3707996 24.9400868,56.4347936 C23.7473,52.4968851 25.9673672,48.3373504 29.9062268,47.1407589 C58.0432484,38.5991121 104.817801,40.2494192 134.374943,57.7959402 C137.922865,59.8971092 139.083311,64.4694584 136.981191,68.0050153 C134.888583,71.5453282 130.303868,72.7124329 126.77497,70.6103127 L126.771165,70.6103127 Z M216.715276,73.5323549 C202.961132,70.2526669 200.516585,67.9507978 200.516585,63.1140189 C200.516585,58.5445232 204.815944,55.4693402 211.217423,55.4693402 C217.419154,55.4693402 223.563813,57.8045008 230.012851,62.6117929 C230.203088,62.7573243 230.450397,62.8153466 230.688193,62.7772992 C230.935501,62.7411542 231.144762,62.6089394 231.28744,62.4101416 L238.00281,52.9439424 C238.278654,52.5539563 238.202559,52.0165364 237.831597,51.7188153 C230.155529,45.5617908 221.518764,42.5684097 211.417172,42.5684097 C196.569165,42.5684097 186.19173,51.4800677 186.19173,64.2307108 C186.19173,77.904004 195.142387,82.7455388 210.608665,86.482747 C223.763562,89.5141756 225.989336,92.0538412 225.989336,96.5928989 C225.989336,101.624671 221.49974,104.754071 214.270729,104.754071 C206.242723,104.754071 199.689054,102.043192 192.364925,95.7082963 C192.184199,95.5465947 191.936891,95.4800117 191.708607,95.4895236 C191.461298,95.5085473 191.242526,95.6226896 191.090336,95.8034149 L183.556946,104.763583 C183.243055,105.144058 183.281102,105.695745 183.642553,106.019148 C192.165176,113.628633 202.647241,117.642637 213.96635,117.642637 C229.965292,117.642637 240.304856,108.901241 240.304856,95.3658695 C240.333215,83.9449838 233.494191,77.6195995 216.743812,73.5447203 L216.715276,73.5323549 Z M276.506804,59.9684481 C269.572661,59.9684481 263.884571,62.7002532 259.185714,68.2979805 L259.185714,61.997327 C259.185714,61.4998569 258.786216,61.0946519 258.291599,61.0946519 L245.973746,61.0946519 C245.479129,61.0946519 245.079631,61.4998569 245.079631,61.997327 L245.079631,132.005539 C245.079631,132.500156 245.479129,132.909166 245.973746,132.909166 L258.291599,132.909166 C258.786216,132.909166 259.185714,132.500156 259.185714,132.005539 L259.185714,109.909497 C263.884571,115.169554 269.572661,117.747267 276.506804,117.747267 C289.395369,117.747267 302.445677,107.826401 302.445677,88.8607111 C302.464659,69.8912164 289.414393,59.9674969 276.516316,59.9674969 L276.506804,59.9684481 Z M288.12078,88.8607111 C288.12078,98.5142938 282.17587,105.2582 273.653247,105.2582 C265.235254,105.2582 258.881334,98.2099145 258.881334,88.8607111 C258.881334,79.5105565 265.235254,72.4641735 273.653247,72.4641735 C282.033192,72.4632223 288.12078,79.3574156 288.12078,88.8597599 L288.12078,88.8607111 Z M335.87981,59.9684481 C319.281621,59.9684481 306.278914,72.748578 306.278914,89.0671183 C306.278914,105.210641 319.196014,117.851897 335.680061,117.851897 C352.335321,117.851897 365.376076,105.115522 365.376076,88.8607111 C365.376076,72.6610689 352.420928,59.9703505 335.87981,59.9703505 L335.87981,59.9684481 L335.87981,59.9684481 Z M335.87981,105.353318 C327.052807,105.353318 320.394508,98.2574737 320.394508,88.8559551 C320.394508,79.4116332 326.824523,72.5583409 335.680061,72.5583409 C344.564134,72.5583409 351.260481,79.651332 351.260481,89.0623624 C351.260481,98.504782 344.792419,105.353318 335.87981,105.353318 L335.87981,105.353318 Z M400.817252,61.0946519 L387.262857,61.0946519 L387.262857,47.2396822 C387.262857,46.7431634 386.863359,46.3379583 386.368742,46.3379583 L374.050888,46.3379583 C373.556272,46.3379583 373.147262,46.7431634 373.147262,47.2396822 L373.147262,61.0946519 L367.230888,61.0946519 C366.736271,61.0946519 366.336773,61.4998569 366.336773,61.997327 L366.336773,72.5811693 C366.336773,73.0776882 366.736271,73.4838445 367.230888,73.4838445 L373.147262,73.4838445 L373.147262,100.873234 C373.147262,111.935523 378.654627,117.547518 389.526678,117.547518 C393.94018,117.547518 397.602244,116.63438 401.055048,114.674937 C401.340404,114.522748 401.511617,114.218368 401.511617,113.894965 L401.511617,103.812398 C401.511617,103.508018 401.349915,103.213151 401.083584,103.051449 C400.817252,102.880236 400.484337,102.870724 400.208493,103.013402 C397.840041,104.202384 395.547683,104.754071 392.979482,104.754071 C389.032062,104.754071 387.262857,102.956331 387.262857,98.9423274 L387.262857,73.4886004 L400.817252,73.4886004 C401.311868,73.4886004 401.711366,73.0833953 401.711366,72.5859252 L401.711366,62.0030341 C401.73039,61.5055641 401.330892,61.100359 400.826763,61.100359 L400.817252,61.0946519 L400.817252,61.0946519 Z M448.034105,61.1488694 L448.034105,59.4471984 C448.034105,54.4411085 449.9555,52.2086759 454.254859,52.2086759 C456.82306,52.2086759 458.887133,52.7185114 461.198514,53.4889717 C461.48387,53.5783832 461.778737,53.5336774 462.007022,53.3634152 C462.244818,53.193153 462.377984,52.9201627 462.377984,52.6310023 L462.377984,42.2535673 C462.377984,41.8569229 462.130676,41.5059354 461.74069,41.3889395 C459.305655,40.6631849 456.185766,39.9184066 451.505933,39.9184066 C440.139265,39.9184066 434.11826,46.3236905 434.11826,58.4351369 L434.11826,61.0413855 L428.201885,61.0413855 C427.707269,61.0413855 427.298259,61.4465905 427.298259,61.9431094 L427.298259,72.5811693 C427.298259,73.0776882 427.707269,73.4838445 428.201885,73.4838445 L434.11826,73.4838445 L434.11826,115.721242 C434.11826,116.22537 434.52727,116.624868 435.021886,116.624868 L447.330228,116.624868 C447.834356,116.624868 448.233854,116.22537 448.233854,115.721242 L448.233854,73.486698 L459.733688,73.486698 L477.349646,115.721242 C475.352156,120.153767 473.383202,121.038369 470.700858,121.038369 C468.532155,121.038369 466.239798,120.391563 463.909393,119.107462 C463.690621,118.99332 463.424289,118.974296 463.196004,119.040879 C462.958208,119.126486 462.758459,119.297699 462.66334,119.525984 L458.487635,128.685901 C458.287886,129.123447 458.4591,129.627575 458.877621,129.85586 C463.234051,132.2148 467.162448,133.223057 472.023006,133.223057 C481.116341,133.223057 486.148113,128.980769 490.571126,117.585565 L511.934755,62.381606 C512.048897,62.1038598 512.01085,61.7899685 511.839636,61.5436115 C511.677935,61.2991568 511.402091,61.151723 511.107223,61.151723 L498.285241,61.151723 C497.895255,61.151723 497.552828,61.3961777 497.429174,61.7566771 L484.293301,99.2657305 L469.911374,61.7319462 C469.778208,61.3828611 469.445293,61.151723 469.074331,61.151723 L448.034105,61.151723 L448.034105,61.1488694 L448.034105,61.1488694 Z M420.658983,61.0946519 L408.34113,61.0946519 C407.846513,61.0946519 407.437503,61.4998569 407.437503,61.997327 L407.437503,115.721242 C407.437503,116.22537 407.846513,116.624868 408.34113,116.624868 L420.658983,116.624868 C421.1536,116.624868 421.56261,116.22537 421.56261,115.721242 L421.56261,62.0011318 C421.56261,61.5036617 421.163112,61.0984566 420.658983,61.0984566 L420.658983,61.0946519 Z M414.571395,36.6311091 C409.691813,36.6311091 405.734881,40.5804318 405.734881,45.4590628 C405.734881,50.3405473 409.691813,54.2946259 414.571395,54.2946259 C419.450978,54.2946259 423.398398,50.3405473 423.398398,45.4590628 C423.398398,40.581383 419.441466,36.6311091 414.571395,36.6311091 Z" fill="#1ED760"></path>
    </g>
</svg>
